X:4
T:Forget Me Not
M:4/4
L:1/8
Z:Dow
S:The playing of Greenwiggle
K:D
d2fd BAFE|DB,~B,2 A,B,DE|FA (3Bcd efeA|Beed egge|
dfed BAFE|DB,~B,2 A,B,DE|FA (3cBA eA (3cBA|d2AG FD (3ABc:|
|:d2ad bdad|gdfd edBd|Addc defg|afdf ea (3fga|
bf~f2 affe|defd e2dA|ABdf eABc|d2AG FD (3ABc:|
